X:1
T:[ID 6-74]
T:[ID 6-74]
T:Bezeichnung standardisiert: Menuet [mit Trio] Menuet Con Trio 19.
T:Urheber unbekannt Datum in der hier transkribierten schriftlichen Quelle: 1775
C:Urheber unbekannt
C:Datum in der hier transkribierten schriftlichen Quelle: 1775
L:1/8
M:3/4
K:A
V:1 treble 
V:1
 c2 cABG | A2 GFED | C2 B,2 A,2 | d2 c4 | B2 BGAF | GEFGAB | c2 B2 A2 | G6 :: g2 geeg | B2 BA B2 | %10
 CDEF GB | A2 G4 | F2 d2 c2 | B4 (3ABc | A2 DCDB, | C6 :|[M:3/4]"^Trio" !fermata!FG A2 A2 | AG G4 | %18
 GA B2 B2 | BA A4 | F2 d2 d2 | dc c4 | c2 B2 A2 | G6 :: ce g2 g2 | eB B4 | GA B2 B2 | AE C4 | %28
 F2 FBBd | E2 EGGB | B2 A2 E2 | C6 :| %32

